X:1
T:A-Rovin (2)
M:4/4
L:1/4
K:D
 A,| D D E A| F E D2| A2 E G| F- E D A,| D D E A| F E D F| A3/2 A/2B/2-A/2 ^G|\
 A3| A| B B G B| A A F A| G F ED/2-E/2| F D B, A,| D3/2 E/2 F G| A- d B G|\
 F2 E2| D3| A| B2 G B| A2 F A| G F E D| F D B, A,| D3/2 E/2 F G| A- d B G|\
 F2 E2| D3||
